X: 1099
T: The Blarney Pilgrim
R:double jig
N:"collected by Cronin"
B:O'Neill's 1099
Z:Transcribed by henrik.norbeck@mailbox.swipnet.se
M:6/8
L:1/8
K:G
DED DEG|A2G ABc|BAG AGE|GEA GED|
DED DEG|A2G ABc|BAG AGE|GED D2z:|
ded dBG|AGA BGE|ded dBG|ABA G3|
Tg2e dBG|AGA BGE|B2G AGE|GAG G2z:|
A2D B2D|A2D ABc|BAG AGE|GEA GED|
A2D B2D|A2D ABc|BAG AGE|GED D2z:|


